X: 28547
T: Munsters Theme Song
R: polka
M: 2/4
K: Eminor
E4 ^AB z2|E4 ^AB z2|E2 GE ^AB e2|cB A4 BA|
G2 AG FE D2|E4 ^AB z2|E4 ^AB z2|E2 GE ^AB e2|
cB A4 GA|B2 B,2 B,^C ^D2|E4 ^AB z2|E4 ^AB D2|
d2 d2 d2 c2|BcAB G z z2|A2 A2 a3 g|fgef ^d z z2|
E2 GE ^AB e2|cB A4 B>A|G2 E2 z2 b>a|g2 e2 z2 D2|
d2 d2 (3e^d=d Bd|BDGB d z z2|A2 A2 a3 g|fgef ^d z z2|
E2 GE ^AB e2|cB A4 B>A|G2 E2 z2 ^d2|e8||

